X: 18
T: Pau, Paw.
N: The title's two words do end with differently-shaped letters.
%R: reel
B: Kitty Bridges "Collection of Country Dances 1745" p.18
F: http://www.vwml.org/browse/browse-collections-dance-tune-books/browse-bridges1745
Z: 2015 John Chambers <jc:trillian.mit.edu>
M: 2/4
L: 1/16
K: D
% - - - - - - - - - - - - - - - - - - - - - - - - - - - - -
ab |\
Ta2gf Tg2fe | {e}f4 z2e2 |\
(fd)(ge) afbg | {f}e4 z2 ab |\
Ta2gf Tg2fe | {e}f6 e2 |\
fgad' f2Te2 | d4 z2 |]
AB |\
A2AB A2AB | A6 e2 |\
fdge afbg | {f}e4 z2AB |\
A2AB A2AB | A6 e2 |\
fgad' f2e2 | d4 z2 |]
% - - - - - - - - - - Dance description - - - - - - - - - -
%%center Pau, Paw,
%%begintext align
%%   The 1st Man set to the 2d Wo. and turn
%% single, then turn her, the 2d Man do the same.
%% cross over and figure thro' the 1st Cu. then right
%% and left quite round, then lead thro' the 3d
%% Cu. and thro' the 2d Cu. then cast off and turn
%% your Partners.
%%endtext

%%sep 1 1 500
%%sep 1 1 500

